!!!COM: Fe/licien David
!!!CNT: Francais
!!!TXO: Francais
!!!OTL: Au Couvent
!!!LYR: Edouard Bouscatel
!!!ENC: Jacob Pegg
!!!YOR: Romantic French Song 1830-1870, David Tunley, ed., New York: Garland Publishing, Inc., 1995
!!!ODT: 1866/
!!NB: Vocal melody and text only encoded.
!!NB: Only first strophe encoded.
**kern	**silbe
*clef G2	*
*k[f#]	*
*M4/4	*
=1	=1
2r	.
{4b	{Si
(8a	J'e/-
8cc)	|
=2	=2
4b	-tais
4a	l'ar-
4g	-den-
8.g	-te
16f#	ga-
=3	=3
4g	-zel-
4d}	-le,}
{4b	{Qui
8g	bon-
8dd	-dit
=4	=4
4dd	li-
4a	-bre,
(4b	dans
16cc#q	|
16bq	|
8a)	|
8g	les
=5	=5
2a}	bois,}
{4b	{Si
8a	J'e/-
8cc	-tais
=6	=6
4b	la
4a	jeune
4.g	hi-
8f#	-ron-
=7	=7
4g	-del-
4d}	-le,}
{4b	{Qui
8b	fend
8cc#	le
=8	=8
4a#	ciel,
(8b	ra-
8dd)	|
4.dd	-sant
8cc#	les
=9	=9
2b}	toils...}
{8b	{Par
8b	u-
8b	-ne
8b	si
=10	=10
4b	bel-
8b	-le
8ee	jour-
2ee	-ne/-
=11	=11
2dd#}	-e,}
{4dn	{Com-
8.a	-me
16b	j'i-
=12	=12
2g	-rais
4dd	a\
8a	tra-
8b	-vers
=13	=13
4.g}	pre/s}
{8g	{Cueil-
4.cc	-lir
8cc	la
=14	=14
8b	fleur
8cc	a\
8dd	pei-
8ee	-ne
(4.dd	ne-
8cc)	|
=15	=15
4b}	-e}
4r	.
{4dd	{Et
8.a	des
16b	fo-
=16	=16
2g	-re\ts
4dd	Hu-
8a	-mer
8b	l'air
=17	=17
2g}	frais,}
8r	.
{8g	{Et
8a	des
8b	fo-
=18	=18
8cc	-re\ts
8dd	Hu-
8ee	-mer
(eeq	l'air
8gg)	|
[2dd	frais!
=19	=19
2dd]}	|}
2r	.
*-	*-
